Front/img/common-section_why/icn-5.svg

<svg width="40" height="40" viewBox="0 0 40 40" fill="none" xmlns="http://www.w3.org/2000/svg">
<path d="M13 5.5C15.6667 8.33333 19.5 10 23.3333 10C25.3333 10 27.3333 9.66667 29 8.83333" stroke="#00181B" stroke-width="1.5" stroke-linecap="round" stroke-linejoin="round"/>
<path d="M20.4974 18.6654C25.3307 18.6654 29.1641 14.6654 29.1641 9.9987C29.1641 5.33203 25.1641 1.33203 20.4974 1.33203C15.6641 1.33203 11.6641 5.16536 11.6641 9.9987C11.6641 14.832 15.6641 18.6654 20.4974 18.6654Z" stroke="#00181B" stroke-width="1.5" stroke-linecap="round" stroke-linejoin="round"/>
<path d="M4.33203 38.6654C4.33203 29.6654 11.6654 22.332 20.6654 22.332C29.6654 22.332 36.9987 29.6654 36.9987 38.6654" stroke="#00181B" stroke-width="1.5" stroke-linecap="round" stroke-linejoin="round"/>
<path d="M23.907 36.544L21.8497 26.7415C22.3633 26.7051 22.7883 26.3341 22.8752 25.8258L23.1727 24.0676C23.3269 23.157 22.6122 22.332 21.6789 22.332H18.3215C17.3872 22.332 16.6736 23.1583 16.8279 24.0676L17.1253 25.8271C17.2122 26.3343 17.6372 26.7053 18.1508 26.7417L16.0933 36.544C16.0368 36.7518 16.1081 36.973 16.2758 37.1104L19.641 39.8709C19.745 39.9563 19.8725 39.9988 20.0002 39.9988C20.1279 39.9988 20.2554 39.9563 20.3595 39.8707L23.7247 37.1103C23.8923 36.9728 23.9635 36.7518 23.907 36.544ZM18.3215 23.4362H21.679C21.9223 23.4362 22.1064 23.6513 22.0662 23.8863L21.7682 25.6445H18.8784L18.2315 25.6447L17.9341 23.886C17.8939 23.6508 18.078 23.4362 18.3215 23.4362ZM20.0002 38.7281L17.2693 36.4879L19.3095 26.7487H20.691L22.7312 36.4879L20.0002 38.7281Z" fill="#FF8139"/>
</svg>

<svg xmlns="http://www.w3.org/2000/svg" fill="none" viewBox="0 0 40 40"><path stroke="#00181B" stroke-linecap="round" stroke-linejoin="round" stroke-width="1.5" d="M13 5.5c2.667 2.833 6.5 4.5 10.333 4.5 2 0 4-.333 5.667-1.167"/><path stroke="#00181B" stroke-linecap="round" stroke-linejoin="round" stroke-width="1.5" d="M20.497 18.665c4.834 0 8.667-4 8.667-8.666 0-4.667-4-8.667-8.667-8.667-4.833 0-8.833 3.833-8.833 8.667 0 4.833 4 8.666 8.833 8.666zM4.332 38.665c0-9 7.333-16.333 16.333-16.333 9 0 16.334 7.333 16.334 16.333"/><path fill="#FF8139" d="M23.907 36.544l-2.057-9.802a1.11 1.11 0 001.025-.916l.298-1.758c.154-.911-.56-1.736-1.494-1.736h-3.357c-.935 0-1.648.826-1.494 1.736l.297 1.76a1.11 1.11 0 001.026.914l-2.058 9.802a.546.546 0 00.183.566l3.365 2.76a.565.565 0 00.719 0l3.365-2.76a.546.546 0 00.182-.566zm-5.585-13.108h3.357c.243 0 .427.215.387.45l-.298 1.759h-3.536l-.298-1.759a.388.388 0 01.387-.45zM20 38.728l-2.73-2.24 2.04-9.74h1.381l2.04 9.74-2.73 2.24z"/></svg>
